X: 0208
T: Greig's Pipes/The Cameronian Rant
P: Greig's Pipes
C:Neil Stewart's Collection 1761
R:Strathspey (8x32)
B:RSCDS 2-8
Z:Anselm Lingnau <anselm@strathspey.org>
M:C
L:1/8
K:A
|:f|"A"e>Ac>A e<AA>f|e>Ac>A "Bm"B<FF>f|\
               	"A"e>Ac>A e>Ac>A|"Bm"B/B/B "F#m"c>A "Bm"B<FF:|
|:B|"A"c>Ac>A c<AA>B|c>Ac>A "Bm"B<AA>B|\
 		"A"c>Ac>A E>Ac>A|"Bm"B/B/B "A"c>A "Bm"B<FF:|
|:A|"A"E>A,C>A, E<A,A,>A|E>A,C>A, "Bm"F<B,B,>A|\
		"A"E>A,C>A, E>A,C>A,|"Bm"B,/B,/B, "A"C>E "Bm"F<B,B,:|
|:G|"A"A/G/F/G/ A>E C>A,A>G|A/G/F/G/ A>E "Bm"F<B,B,G|\
		"A"A/G/F/G/ A>E C>D E>C|"Bm"B,/B,/B, "A"C>E "Bm"F<B,B,:|
%%center Book02/0208-Greigs_Pipes_The_Cameronian_Rant-AL.abc

%%sep 1 1 500
%%sep 1 1 500

